icons/svg/account-convert.svg

﻿<?xml version="1.0" encoding="utf-8"?>
<!DOCTYPE svg PUBLIC "-//W3C//DTD SVG 1.1//EN" "http://www.w3.org/Graphics/SVG/1.1/DTD/svg11.dtd">
<svg xmlns="http://www.w3.org/2000/svg" xmlns:xlink="http://www.w3.org/1999/xlink" version="1.1" baseProfile="full" width="24" height="24" viewBox="0 0 24.00 24.00" enable-background="new 0 0 24.00 24.00" xml:space="preserve">
	<path fill="#000000" fill-opacity="1" stroke-width="0.2" stroke-linejoin="round" d="M 7.52,21.48L 8.85,20.16L 12.66,23.97L 12,24C 5.71,24 0.559998,19.16 0.0500031,13L 1.55,13C 1.91,16.76 4.25,19.94 7.52,21.48 Z M 16.48,2.52001L 15.15,3.83985L 11.34,0.0300083L 12,7.62939e-006C 18.29,7.62939e-006 23.44,4.83985 23.95,11L 22.45,11C 22.0898,7.24024 19.75,4.07001 16.48,2.52001 Z M 6,17C 6,15 10,13.8999 12,13.8999C 14,13.8999 18,15 18,17L 18,18L 6,18L 6,17 Z M 15,9.00004C 15,10.6581 13.656,12 12,12C 10.344,12 9,10.6581 9,9.00004C 9,7.34404 10.344,6.00004 12,6.00004C 13.656,6.00004 15,7.34404 15,9.00004 Z "/>
</svg>

<svg xmlns="http://www.w3.org/2000/svg" version="1.1" baseProfile="full" width="24" height="24" viewBox="0 0 24.00 24.00" xml:space="preserve"><path fill="#000" fill-opacity="1" stroke-width=".2" stroke-linejoin="round" d="M7.52 21.48l1.33-1.32 3.81 3.81L12 24C5.71 24 .56 19.16.05 13h1.5c.36 3.76 2.7 6.94 5.97 8.48zm8.96-18.96l-1.33 1.32L11.34.03 12 0c6.29 0 11.44 4.84 11.95 11h-1.5c-.36-3.76-2.7-6.93-5.97-8.48zM6 17c0-2 4-3.1 6-3.1s6 1.1 6 3.1v1H6v-1zm9-8c0 1.658-1.344 3-3 3s-3-1.342-3-3c0-1.656 1.344-3 3-3s3 1.344 3 3z"/></svg>
